X: 7189
T: Cill Aodáin
R: jig
M: 6/8
K: Dmajor
A|ABF AFE|DED DFA|dcd BAF|FED E2 A|
ABF AFE|DED DFA|dcd BAF|EDD D2 A|
ABc dcd|edc BAA|dcd BAF|FED E2 A|
ABF AFE|DED DFA|dcd BAF|EDD D2||

